images/profile-info-instruments-icon-3.svg

<svg width="24" height="24" viewBox="0 0 24 24" fill="none" xmlns="http://www.w3.org/2000/svg">
<g id="instruments" clip-path="url(#clip0_131_8427)">
<g id="Group">
<path id="Vector" d="M4.25002 0.299805H19.75C22.1 0.299805 24 2.19979 24 4.54982V19.4498C24 21.7998 22.1 23.6999 19.75 23.6999H4.25002C1.89998 23.6998 0 21.7998 0 19.4498V4.54982C0 2.19979 1.89998 0.299805 4.25002 0.299805Z" fill="#001834"/>
<g id="Group_2">
<path id="Vector_2" d="M5.40002 16.71V6.42002C5.40002 6.35003 5.43002 6.31 5.50001 6.31C5.67002 6.31 5.83001 6.31 6.06002 6.30002C6.30002 6.29003 6.55001 6.29003 6.82001 6.28C7.09001 6.26997 7.38002 6.27002 7.69001 6.25998C7.99999 6.25 8.29999 6.25 8.59999 6.25C9.41998 6.25 10.1 6.34998 10.66 6.55998C11.16 6.73 11.62 7.00998 12 7.37997C12.32 7.69998 12.57 8.08998 12.73 8.51997C12.88 8.93997 12.96 9.36995 12.96 9.81995C12.96 10.68 12.76 11.3899 12.36 11.95C11.96 12.51 11.4 12.93 10.75 13.17C10.07 13.42 9.31999 13.51 8.50001 13.51C8.26001 13.51 8.10002 13.51 7.99999 13.5C7.90001 13.49 7.75999 13.49 7.57001 13.49V16.7C7.57999 16.77 7.53002 16.83 7.45999 16.84C7.45001 16.84 7.43998 16.84 7.42001 16.84H5.52002C5.44001 16.84 5.40002 16.8 5.40002 16.71ZM7.58004 8.24003V11.6C7.72006 11.61 7.85004 11.62 7.97004 11.62H8.50006C9.19057 11.62 9.98806 11.4578 10.47 10.9101C10.8848 10.4387 10.886 9.50392 10.55 8.99008C10.1512 8.38009 9.3537 8.20337 8.67002 8.22006C8.41001 8.22006 8.18004 8.22006 7.99001 8.23005C7.79004 8.22002 7.65002 8.23 7.58004 8.24003Z" fill="#00A9FF"/>
<path id="Vector_3" d="M19.2 10.99C18.9 10.83 18.58 10.72 18.24 10.65C17.87 10.57 17.5 10.52 17.12 10.52C16.92 10.51 16.71 10.54 16.52 10.59C16.39 10.62 16.28 10.69 16.21 10.79C16.16 10.87 16.13 10.97 16.13 11.06C16.13 11.15 16.17 11.24 16.23 11.32C16.32 11.43 16.44 11.52 16.57 11.59C16.8 11.71 17.04 11.82 17.28 11.92C17.82 12.1 18.34 12.35 18.82 12.65C19.15 12.86 19.42 13.14 19.61 13.48C19.77 13.8 19.85 14.15 19.84 14.51C19.85 14.98 19.71 15.45 19.45 15.84C19.17 16.24 18.78 16.55 18.33 16.73C17.84 16.94 17.24 17.05 16.52 17.05C16.06 17.05 15.61 17.01 15.16 16.92C14.81 16.86 14.46 16.75 14.14 16.6C14.07 16.56 14.02 16.49 14.03 16.41V14.67C14.03 14.64 14.04 14.6 14.07 14.58C14.1 14.56 14.13 14.57 14.16 14.59C14.55 14.82 14.96 14.98 15.4 15.08C15.78 15.18 16.18 15.23 16.58 15.23C16.96 15.23 17.23 15.18 17.41 15.09C17.57 15.02 17.68 14.85 17.68 14.67C17.68 14.53 17.6 14.4 17.44 14.27C17.28 14.14 16.95 13.99 16.46 13.8C15.95 13.62 15.48 13.38 15.04 13.08C14.73 12.86 14.47 12.57 14.28 12.23C14.12 11.91 14.04 11.56 14.05 11.21C14.05 10.78 14.17 10.37 14.39 10C14.64 9.60003 15.01 9.28001 15.44 9.08C15.91 8.84 16.5 8.72998 17.21 8.72998C17.62 8.72998 18.04 8.75998 18.45 8.81998C18.75 8.85996 19.04 8.93998 19.31 9.05C19.35 9.05998 19.39 9.10001 19.41 9.14C19.4199 9.17998 19.43 9.22001 19.43 9.26V10.89C19.43 10.93 19.41 10.97 19.38 10.99C19.29 11.01 19.24 11.01 19.2 10.99Z" fill="#00A9FF"/>
</g>
</g>
</g>
<defs>
<clipPath id="clip0_131_8427">
<rect width="24" height="24" fill="white"/>
</clipPath>
</defs>
</svg>

<svg width="24" height="24" fill="none" xmlns="http://www.w3.org/2000/svg"><g id="instruments" clip-path="url(#clip0_131_8427)"><g id="Group"><path id="Vector" d="M4.25.3h15.5C22.1.3 24 2.2 24 4.55v14.9c0 2.35-1.9 4.25-4.25 4.25H4.25C1.9 23.7 0 21.8 0 19.45V4.55C0 2.2 1.9.3 4.25.3z" fill="#001834"/><g id="Group_2" fill="#00A9FF"><path id="Vector_2" d="M5.4 16.71V6.42c0-.07.03-.11.1-.11.17 0 .33 0 .56-.01.24-.01.49-.01.76-.02s.56-.01.87-.02c.31-.01.61-.01.91-.01.82 0 1.5.1 2.06.31.5.17.96.45 1.34.82.32.32.57.71.73 1.14.15.42.23.85.23 1.3 0 .86-.2 1.57-.6 2.13-.4.56-.96.98-1.61 1.22-.68.25-1.43.34-2.25.34-.24 0-.4 0-.5-.01-.1-.01-.24-.01-.43-.01v3.21c.01.07-.04.13-.11.14H5.52c-.08 0-.12-.04-.12-.13zm2.18-8.47v3.36c.14.01.27.02.39.02h.53c.69 0 1.488-.162 1.97-.71.415-.471.416-1.406.08-1.92-.399-.61-1.196-.787-1.88-.77-.26 0-.49 0-.68.01-.2-.01-.34 0-.41.01z"/><path id="Vector_3" d="M19.2 10.99c-.3-.16-.62-.27-.96-.34-.37-.08-.74-.13-1.12-.13-.2-.01-.41.02-.6.07-.13.03-.24.1-.31.2a.53.53 0 00-.08.27c0 .09.04.18.1.26.09.11.21.2.34.27.23.12.47.23.71.33.54.18 1.06.43 1.54.73.33.21.6.49.79.83.16.32.24.67.23 1.03.01.47-.13.94-.39 1.33-.28.4-.67.71-1.12.89-.49.21-1.09.32-1.81.32-.46 0-.91-.04-1.36-.13-.35-.06-.7-.17-1.02-.32-.07-.04-.12-.11-.11-.19v-1.74c0-.03.01-.07.04-.09.03-.02.06-.01.09.01.39.23.8.39 1.24.49.38.1.78.15 1.18.15.38 0 .65-.05.83-.14.16-.07.27-.24.27-.42 0-.14-.08-.27-.24-.4-.16-.13-.49-.28-.98-.47-.51-.18-.98-.42-1.42-.72a2.59 2.59 0 01-.76-.85c-.16-.32-.24-.67-.23-1.02 0-.43.12-.84.34-1.21.25-.4.62-.72 1.05-.92.47-.24 1.06-.35 1.77-.35.41 0 .83.03 1.24.09.3.04.59.12.86.23.04.01.08.05.1.09.01.04.02.08.02.12v1.63c0 .04-.02.08-.05.1-.09.02-.14.02-.18 0z"/></g></g></g><defs><clipPath id="clip0_131_8427"><path fill="#fff" d="M0 0h24v24H0z"/></clipPath></defs></svg>
